X:339
T: ALS ICH DICH ZUM ERSTENMAL ERBLICKTE
N: B0401
O: Europa, Mitteleuropa, Deutschland, Rheinland
R: Liebes - Lied, Liebes - Lust
M: 4/4
L: 1/16
K: C
G3F | E6G2c3BA3E | G2F2F4z4
F3B | d6c2B2A2G2F2 | E8z4
G3E | c6G2e3dc3B | B2A2A2z4
c2B2A2 | G6c2B3AG2F2 | E8z4
G3E | c6G2e3dc3B | B2A2A2z4
c2B2A2 | G6c2B3AG2F2 | E8z4

@@@ Tune index: 2142
